X:1
T:Where Could I Go (But to the Lord) #145
C:J B Coats, words and lyrics
M:4/4
L:1/4
%%score (V1 V2)
V:1 clef=treble name="Melody"
K:D
|"D"F2 F A|(F G F) D|"G"E D D E|"D"D4|D2 D E
w:1~Liv-ing be-low__ in this old sin-ful world; Hard-ly a
w:2~Neigh-bors are kind,__ I love them ev'-ry one. We get a-
w:3~Life here is grand__ with friends I love so dear, Com-fort I
|F F G F|("A"E2 E F|E E D E)|"D"F2 F A|F3 D|"G"E D D E
w:com-fort can a-ford______ Stri-ving a lone to face temp-ta-tions
w:long in sweet ac-cord______ But when my soul needs man-na from a-
w:get from God's own word;______ Yet when I face the chil-ling hand of
|"D"D4|F2 A G|F D "A"E E|("D"D3 E|D3 E)
w:sore. Where could I go but to the Lord?___
w:bove. Where could I go but to the Lord?___
w:death; Where could I go but to the Lord?___
|"^Chorus"F2 F G|(F G F) D|("G"E D) D E|"D"D4|D2 D E|F F G F
w:Where could I go?__ Oh, where_ could I go? Seek-ing a re-fuge for my
|("A"E3 F|E2 D E)|"D"F2 F A|(F G F) D|"G"E D D E|"D"D4
w:soul____ Need-ing a friend__ to save me in the end,
|"^TAG"F2 A G|F D "A"E E|("D"D3 E|D4)||
w:Where could I go but to the Lord?__

